X: 1
T: the Evenstar
C: Hanneke Cassell
S: from her CD "Some Melodious Sonnet"
S: printed page in Concord Slow Scottish Session collection
R: reel
Z: 2015 John Chambers <jc:trillian.mit.edu>
M: C|
L: 1/8
K: G
%%staffsep 40
|:\
"Am/G"A3G FGcG | "D7/G"BcFA dDcD |\
"G"B3c dG G/G/G | dGdc BAGB |
"Am/G"A3G FGcG | "D7/G"BcFA dDcD |\
"G"B6 gf | "G"dDcD [1 BAGB :|[2 BABd |]
|:\
"Em"e3d efg2- | "Am"g3f ed e/f/g |\
"D"fd a6- | "D"a3d gfdg | "Am"A3G ABc2- |
[1 "D"c3B AGdc | "G"B6 gf | "G"dDcD BABd :|\
[2 "F/G"c3B AG2=F | "G"G8- | "G"G8 |]
